source/images/icons/github.svg

<?xml version="1.0" encoding="UTF-8" standalone="no"?>
<svg width="30px" height="30px" viewBox="0 0 30 30" version="1.1" xmlns="http://www.w3.org/2000/svg" xmlns:xlink="http://www.w3.org/1999/xlink">
    <!-- Generator: Sketch 39.1 (31720) - http://www.bohemiancoding.com/sketch -->
    <title>github</title>
    <desc>Created with Sketch.</desc>
    <defs></defs>
    <g id="Speakers" stroke="none" stroke-width="1" fill="none" fill-rule="evenodd">
        <path d="M15,0 C6.7175,0 0,6.71625 0,15 C0,21.6275 4.2975,27.25 10.25875,29.23375 C11.0075,29.3725 11.25,28.9075 11.25,28.5125 L11.25,25.72 C7.0775,26.6275 6.20875,23.95 6.20875,23.95 C5.52625,22.21625 4.5425,21.755 4.5425,21.755 C3.18125,20.82375 4.64625,20.84375 4.64625,20.84375 C6.1525,20.94875 6.945,22.39 6.945,22.39 C8.2825,24.6825 10.45375,24.02 11.31,23.63625 C11.44375,22.6675 11.8325,22.005 12.2625,21.63125 C8.93125,21.25 5.42875,19.96375 5.42875,14.2175 C5.42875,12.57875 6.015,11.24125 6.97375,10.19125 C6.81875,9.8125 6.305,8.28625 7.12,6.22125 C7.12,6.22125 8.38,5.81875 11.24625,7.75875 C12.4425,7.42625 13.725,7.26 15,7.25375 C16.275,7.26 17.55875,7.42625 18.7575,7.75875 C21.62125,5.81875 22.87875,6.22125 22.87875,6.22125 C23.695,8.2875 23.18125,9.81375 23.02625,10.19125 C23.98875,11.24125 24.57,12.58 24.57,14.2175 C24.57,19.97875 21.06125,21.2475 17.72125,21.61875 C18.25875,22.08375 18.75,22.99625 18.75,24.39625 L18.75,28.5125 C18.75,28.91125 18.99,29.38 19.75125,29.2325 C25.7075,27.24625 30,21.625 30,15 C30,6.71625 23.28375,0 15,0 L15,0 Z" id="github" fill="#0D41C2"></path>
    </g>
</svg>

<svg width="30" height="30" viewBox="0 0 30 30" xmlns="http://www.w3.org/2000/svg"><title>github</title><path d="M15 0C6.718 0 0 6.716 0 15c0 6.628 4.298 12.25 10.259 14.234.748.138.991-.327.991-.722V25.72c-4.173.908-5.041-1.77-5.041-1.77-.683-1.734-1.666-2.195-1.666-2.195-1.362-.931.103-.911.103-.911 1.506.105 2.299 1.546 2.299 1.546 1.338 2.293 3.509 1.63 4.365 1.246.134-.968.522-1.631.952-2.005-3.33-.381-6.833-1.667-6.833-7.414 0-1.638.586-2.976 1.545-4.026-.155-.379-.669-1.905.146-3.97 0 0 1.26-.402 4.126 1.538A14.386 14.386 0 0 1 15 7.254c1.275.006 2.559.172 3.758.505 2.863-1.94 4.12-1.538 4.12-1.538.817 2.066.303 3.593.148 3.97.963 1.05 1.544 2.389 1.544 4.026 0 5.762-3.509 7.03-6.849 7.402.538.465 1.029 1.377 1.029 2.777v4.116c0 .4.24.868 1.001.72C25.707 27.247 30 21.626 30 15c0-8.284-6.716-15-15-15z" fill="#0D41C2" fill-rule="evenodd"/></svg>
